X:1
T:Title
%%score { ( 1 3 ) | ( 2 4 ) }
L:1/8
Q:1/4=90
M:6/8
K:E
V:1 treble nm="Grand Piano"
V:3 treble 
V:2 bass 
V:4 bass 
V:1
 GGG GGG | GFE B3 | GGG GGG | GFE [DF]3 | GGG GGG | GFE B3 | cde BGE | [DF]3 E3 | B3 .G3 | %9
w: J.~H.~Fillmore * * * * *|||||||||
 e-[Ae-][Be] c3 | .G3 .G3 | .[B,EG]3 [DF]3 | B-[GB-][GB] z E[GB] | %13
w: ||||
[M:15/16] e-[Ae]/-[Ae-]/[Be]c3/2- c3 |[M:3/4] BG E[EGB] [B,EG][G,E] | [DF]4 z2 |] %16
w: |||
V:2
 [E,B,E][E,B,E][E,B,E] [E,B,E][E,B,E][E,B,E] | [E,B,E][E,A,D][E,G,] [E,G,E]3 | %2
 [E,B,E][E,B,E][E,B,E] [E,B,E][E,B,E][E,B,E] | [E,B,E][E,A,D][E,G,] [B,,B,]3 | %4
 [E,B,E][E,B,E][E,B,E] [E,B,E][E,B,E][E,B,E] | [E,B,E][E,A,D][E,G,] [E,G,E]3 | %6
 [A,E][A,B,E][A,CE] [B,EG][B,E][K:bass][G,B,] | [B,,A,]3 [E,G,]3 | %8
 [E,E][E,E][E,E] [E,B,E][E,B,][E,B,] | E,F,[K:treble][G,E] [A,EA]3 | %10
 [E,E][E,E][E,E] [E,B,E][E,B,][E,G,] | z DE [B,,B,]3 | [E,E][E,E][E,E] [E,B,E][E,B,][E,B,] | %13
[M:15/16] B,-[F,B,]/-[F,B,]/[K:treble][G,E][A,EA]3/2- [A,EA]3 | %14
[M:3/4] [B,EG][B,E][K:bass] [G,B,]B,, B,,B,, | z B, A, E,3 |] %16
V:3
 x6 | x6 | x6 | x6 | x6 | x6 | x6 | x6 | GGG z E[GB] | .G3 z3 | B-[GB-][GB] z EE | x6 | .G3 .G3 | %13
[M:15/16] .G3/2 z3/2 z3/2 z3 |[M:3/4] x6 | .A,2 z [G,E]3 |] %16
V:4
 x6 | x6 | x6 | x6 | x6 | x6 | x5[K:bass] x | x6 | x6 | .B,3[K:treble] z3 | x6 | B,,3 z3 | x6 | %13
[M:15/16] .E,3/2 z3/2[K:treble] z3/2 z3 |[M:3/4] x2[K:bass] x4 | B,,4 z2 |] %16

